icons/numix/16x16/mimetypes/text-html.svg

<?xml version="1.0" encoding="UTF-8" standalone="no"?>
<svg
   xmlns:dc="http://purl.org/dc/elements/1.1/"
   xmlns:cc="http://creativecommons.org/ns#"
   xmlns:rdf="http://www.w3.org/1999/02/22-rdf-syntax-ns#"
   xmlns:svg="http://www.w3.org/2000/svg"
   xmlns="http://www.w3.org/2000/svg"
   xmlns:sodipodi="http://sodipodi.sourceforge.net/DTD/sodipodi-0.dtd"
   xmlns:inkscape="http://www.inkscape.org/namespaces/inkscape"
   width="16"
   height="16"
   viewBox="0 0 16 16"
   id="svg2"
   version="1.1"
   inkscape:version="0.48.5 r10040"
   sodipodi:docname="text-html.svg">
  <metadata
     id="metadata34">
    <rdf:RDF>
      <cc:Work
         rdf:about="">
        <dc:format>image/svg+xml</dc:format>
        <dc:type
           rdf:resource="http://purl.org/dc/dcmitype/StillImage" />
      </cc:Work>
    </rdf:RDF>
  </metadata>
  <defs
     id="defs32" />
  <sodipodi:namedview
     pagecolor="#ffffff"
     bordercolor="#666666"
     borderopacity="1"
     objecttolerance="10"
     gridtolerance="10"
     guidetolerance="10"
     inkscape:pageopacity="0"
     inkscape:pageshadow="2"
     inkscape:window-width="1280"
     inkscape:window-height="970"
     id="namedview30"
     showgrid="true"
     inkscape:zoom="29.5"
     inkscape:cx="9.4020091"
     inkscape:cy="9.6126348"
     inkscape:window-x="0"
     inkscape:window-y="0"
     inkscape:window-maximized="1"
     inkscape:current-layer="svg2">
    <inkscape:grid
       type="xygrid"
       id="grid3018" />
  </sodipodi:namedview>
  <path
     style="fill:#7099c3;fill-opacity:1"
     d="M 2.667969,-4.46e-4 C 2.324219,-4.46e-4 2,0.337812 2,0.6964467 L 2,15.303108 C 2,15.641365 2.34375,16 2.667969,16 l 10.664062,0 C 13.65625,16 14,15.641365 14,15.303108 L 14,3.9995538 9.9999999,-4.46e-4 z"
     id="path4-2"
     inkscape:connector-curvature="0"
     sodipodi:nodetypes="ssssssccs" />
  <g
     style="fill:#ffffff"
     id="g10"
     transform="matrix(1.3331238,0,0,1.3395672,-2.665153,-3.0709949)">
    <path
       d="m 5.546875,7.636719 0,0.546875 4.90625,0 0,-0.546875 z"
       id="path12"
       inkscape:connector-curvature="0" />
    <path
       d="m 5.273438,8.726562 0,0.546876 5.453124,0 0,-0.546876 z"
       id="path14"
       inkscape:connector-curvature="0" />
    <path
       d="m 5.546875,9.816406 0,0.546875 4.90625,0 0,-0.546875 z"
       id="path16"
       inkscape:connector-curvature="0" />
    <path
       d="m 7.726562,6.273438 0,5.453124 0.546876,0 0,-5.453124 z"
       id="path18"
       inkscape:connector-curvature="0" />
  </g>
  <path
     style="fill:#000000;fill-opacity:0.19599998"
     d="m 10.583223,3.3315848 0.0154,0.01953 0.04005,-0.01953 z m 0.02978,0.667969 3.387,3.664062 0,-3.664062 z"
     id="path6"
     inkscape:connector-curvature="0"
     sodipodi:nodetypes="cccccccc" />
  <g
     style="fill:none;stroke:#ffffff"
     id="g20"
     transform="matrix(1.3331238,0,0,1.3395672,-2.665153,-3.0709949)">
    <g
       style="stroke-width:2"
       id="g22">
      <path
         d="m 20.447975,32.994922 c -2.005237,-6.001389 -2.005237,-11.988455 0,-17.989844"
         transform="matrix(0.27272,0,0,0.27272,1.45461,2.45464)"
         id="path24"
         inkscape:connector-curvature="0" />
      <path
         d="m 27.466306,32.994922 c 2.005237,-4.998771 2.005237,-11.988455 0,-17.989844"
         transform="matrix(0.27272,0,0,0.27272,1.45461,2.45464)"
         id="path26"
         inkscape:connector-curvature="0" />
    </g>
    <path
       style="stroke-width:1.82099998;stroke-linecap:round"
       d="m 33.055052,27.317092 c 0,5.033344 -4.068402,9.101746 -9.101746,9.101746 -5.033344,0 -9.101747,-4.068402 -9.101747,-9.101746 0,-5.033344 4.068403,-9.101747 9.101747,-9.101747 5.033344,0 9.101746,4.068403 9.101746,9.101747 z"
       transform="matrix(0.29957,0,0,0.29957,0.82443,0.81676)"
       id="path28"
       inkscape:connector-curvature="0" />
  </g>
  <path
     style="fill:#ffffff;fill-opacity:0.39200003"
     d="m 9.9999999,-4.46e-4 3.9963961,3.9999998 -3.383784,0 c -0.299099,0 -0.6126121,-0.317117 -0.6126121,-0.616216 z"
     id="path8"
     inkscape:connector-curvature="0"
     sodipodi:nodetypes="ccssc" />
</svg>

<svg width="16" xmlns="http://www.w3.org/2000/svg" height="16" viewBox="0 0 16 16" xmlns:xlink="http://www.w3.org/1999/xlink">
<path style="fill:#7099c3" d="M 2.667969 0.332031 C 2.324219 0.332031 2 0.65625 2 1 L 2 15 C 2 15.324219 2.34375 15.667969 2.667969 15.667969 L 13.332031 15.667969 C 13.65625 15.667969 14 15.324219 14 15 L 14 4.667969 L 9.667969 0.332031 Z "/>
<path style="fill:#000;fill-opacity:.196" d="M 9.667969 4 L 9.6875 4.019531 L 9.738281 4 Z M 10.332031 4.667969 L 14 8.332031 L 14 4.667969 Z "/>
<path style="fill:#fff;fill-opacity:.392" d="M 9.667969 0.332031 L 14 4.667969 L 10.332031 4.667969 C 10.007812 4.667969 9.667969 4.324219 9.667969 4 Z "/>
<g style="fill:#fff">
<path d="M 5.546875 7.636719 L 5.546875 8.183594 L 10.453125 8.183594 L 10.453125 7.636719 Z "/>
<path d="M 5.273438 8.726562 L 5.273438 9.273438 L 10.726562 9.273438 L 10.726562 8.726562 Z "/>
<path d="M 5.546875 9.816406 L 5.546875 10.363281 L 10.453125 10.363281 L 10.453125 9.816406 Z "/>
<path d="M 7.726562 6.273438 L 7.726562 11.726562 L 8.273438 11.726562 L 8.273438 6.273438 Z "/>
</g>
<g style="stroke:#fff;fill:none">
<g style="stroke-width:2">
<path d="M 20.447975 32.994922 C 18.442738 26.993533 18.442738 21.006467 20.447975 15.005078 " transform="matrix(.27272 0 0 .27272 1.45461 2.45464)"/>
<path d="M 27.466306 32.994922 C 29.471543 27.996151 29.471543 21.006467 27.466306 15.005078 " transform="matrix(.27272 0 0 .27272 1.45461 2.45464)"/>
</g>
<path style="stroke-linecap:round;stroke-width:1.821" d="M 33.055052 27.317092 C 33.055052 32.350436 28.98665 36.418838 23.953306 36.418838 C 18.919962 36.418838 14.851559 32.350436 14.851559 27.317092 C 14.851559 22.283748 18.919962 18.215345 23.953306 18.215345 C 28.98665 18.215345 33.055052 22.283748 33.055052 27.317092 Z " transform="matrix(.29957 0 0 .29957 .82443 .81676)"/>
</g>
</svg>
